X:1
T:Flowers of Cahirciveen -- Reel
R:reel
B:Ryan's Mammoth Collection
Z:Contributed by Ray Davies,  ray:davies99.freeserve.co.uk
M:2/4
L:1/16
K:Bb
uF2|Bdfa bfgf|edcB AcFE|DFBd ABcd|ecdB AcF2|
Bdfa bfgf|edcB AcFE|DFBd EFAc|ecAc B2::
u(FE)|(DF)(BF) (dF)(BF)|(DF)(BF) (dF)(BF)|\
(EG)(BG) (eG)(BG)|(EG)(BG) (eG)(BG)|
(DF)(BF) (dF)(BF)|(DF)(BF) (dF)(BF)|\
(eA).c.e (Ac).e.A|.c.e.A.c B2:|
